assets/img/safety.svg

<svg width="100" height="101" viewBox="0 0 100 101" fill="none" xmlns="http://www.w3.org/2000/svg">
<circle cx="50" cy="50.4863" r="50" fill="#00AEEF"/>
<path d="M40.5796 31.867C40.5796 26.8648 44.7354 22.4184 49.9994 22.4184C55.2634 22.4184 59.4192 26.5869 59.4192 31.867C59.4192 36.8692 55.2634 41.3155 49.9994 41.3155C44.7354 41.3155 40.5796 36.8692 40.5796 31.867ZM65.5144 31.867C65.5144 23.2521 58.588 16.3047 49.9994 16.3047C41.4107 16.3047 34.4844 23.2521 34.4844 31.867C34.4844 39.3702 39.7484 45.7619 46.9518 47.1514V78.5539V84.6676L53.047 78.5539H59.1421V72.4401H53.047V66.3264H59.1421V60.2126H53.047V47.4293C60.2504 45.484 65.5144 39.3702 65.5144 31.867Z" fill="white"/>
</svg>

<svg width="100" height="101" fill="none" xmlns="http://www.w3.org/2000/svg"><circle cx="50" cy="50.486" r="50" fill="#00AEEF"/><path d="M40.58 31.867c0-5.002 4.155-9.449 9.42-9.449 5.263 0 9.42 4.169 9.42 9.449 0 5.002-4.157 9.448-9.42 9.448-5.265 0-9.42-4.446-9.42-9.448Zm24.934 0c0-8.615-6.926-15.562-15.515-15.562-8.588 0-15.515 6.947-15.515 15.562 0 7.503 5.264 13.895 12.468 15.284v37.517l6.095-6.114h6.095V72.44h-6.095v-6.114h6.095v-6.113h-6.095V47.429c7.203-1.945 12.467-8.059 12.467-15.562Z" fill="#fff"/></svg>
